src/devices/16/drive-harddisk.svg

<?xml version="1.0" encoding="UTF-8" standalone="no"?>
<svg
   version="1.1"
   viewBox="0 0 16 16"
   id="svg15"
   sodipodi:docname="drive-harddisk.svg"
   inkscape:version="1.1.1 (3bf5ae0d25, 2021-09-20, custom)"
   xmlns:inkscape="http://www.inkscape.org/namespaces/inkscape"
   xmlns:sodipodi="http://sodipodi.sourceforge.net/DTD/sodipodi-0.dtd"
   xmlns:xlink="http://www.w3.org/1999/xlink"
   xmlns="http://www.w3.org/2000/svg"
   xmlns:svg="http://www.w3.org/2000/svg">
  <sodipodi:namedview
     id="namedview17"
     pagecolor="#ffffff"
     bordercolor="#999999"
     borderopacity="1"
     inkscape:pageshadow="0"
     inkscape:pageopacity="0"
     inkscape:pagecheckerboard="0"
     showgrid="false"
     inkscape:zoom="11.703125"
     inkscape:cx="10.040053"
     inkscape:cy="-1.9225634"
     inkscape:window-width="1920"
     inkscape:window-height="936"
     inkscape:window-x="0"
     inkscape:window-y="40"
     inkscape:window-maximized="1"
     inkscape:current-layer="svg15" />
  <defs
     id="defs3">
    <linearGradient
       inkscape:collect="always"
       id="linearGradient957">
      <stop
         style="stop-color:#03bdfe;stop-opacity:1"
         offset="0"
         id="stop953" />
      <stop
         style="stop-color:#675afe;stop-opacity:1"
         offset="1"
         id="stop955" />
    </linearGradient>
    <style
       id="current-color-scheme"
       type="text/css">.ColorScheme-Text { color:#363636; }</style>
    <linearGradient
       id="linearGradient4938"
       x1="8.4666996"
       x2="8.4666996"
       y1="2.5999"
       y2="14.288"
       gradientUnits="userSpaceOnUse"
       gradientTransform="matrix(3.779602,0,0,3.779602,-23.725447,-71.439293)">
      <stop
         stop-color="#03bdfe"
         offset="0"
         id="stop2" />
      <stop
         stop-color="#675afe"
         offset="1"
         id="stop4" />
    </linearGradient>
    <linearGradient
       inkscape:collect="always"
       xlink:href="#linearGradient957"
       id="linearGradient959"
       x1="0"
       y1="8.5"
       x2="16"
       y2="8.5"
       gradientUnits="userSpaceOnUse" />
  </defs>
  <g
     class="ColorScheme-Text"
     fill="currentColor"
     id="g13"
     transform="translate(-21.505312)">
    <path
       d="M 6,2 C 4.5005,2 3.4575,3.0366 3.0684,4.0332 l -2.8691,7.4844 c -0.003232,0.0076 -0.004654,0.01581 -0.007813,0.02344 l -0.058594,0.15039 h 0.011719 c -0.08705,0.25475 -0.14453,0.52362 -0.14453,0.80859 0,1.385 1.115,2.5 2.5,2.5 h 11 c 1.385,0 2.5,-1.115 2.5,-2.5 0,-0.28498 -0.05748,-0.55384 -0.14453,-0.80859 h 0.01172 l -0.05859,-0.15039 -0.0039,-0.01563 c -0.0011,-0.0027 -0.0028,-0.0051 -0.0039,-0.0078 l -2.8692,-7.4844 c -0.38916,-0.99659 -1.4322,-2.0332 -2.9316,-2.0332 h -2 z m 0,1 h 4 c 1.108,0 1.7085,0.6499 2,1.3965 l 2.1875,5.7109 C 13.96789,10.044695 13.74028,9.99998 13.5,9.99998 h -11 c -0.24028,0 -0.46789,0.04472 -0.6875,0.10742 L 4,4.3965 C 4.29153,3.64992 4.892,3 6,3 Z m -3.5,8 h 11 c 0.831,0 1.5,0.669 1.5,1.5 0,0.831 -0.669,1.5 -1.5,1.5 H 2.5 C 1.669,14 1,13.331 1,12.5 1,11.669 1.669,11 2.5,11 Z"
       id="path5" />
    <circle
       cx="12.5"
       cy="12.5"
       r="0.5"
       id="circle7" />
    <circle
       cx="10.5"
       cy="12.5"
       r="0.5"
       id="circle9" />
    <circle
       cx="8.5"
       cy="12.5"
       r="0.5"
       id="circle11" />
  </g>
  <path
     id="path938"
     style="color:#363636;fill:url(#linearGradient959);fill-opacity:1"
     d="M 6 2 C 4.5005 2 3.4574594 3.0366031 3.0683594 4.0332031 L 0.19921875 11.517578 C 0.19598675 11.525178 0.19456525 11.533386 0.19140625 11.541016 L 0.1328125 11.691406 L 0.14453125 11.691406 C 0.05748125 11.946156 0 12.21503 0 12.5 C 0 13.885 1.115 15 2.5 15 L 13.5 15 C 14.885 15 16 13.885 16 12.5 C 16 12.21502 15.942519 11.946156 15.855469 11.691406 L 15.867188 11.691406 L 15.808594 11.541016 L 15.804688 11.525391 C 15.803588 11.522691 15.801881 11.520278 15.800781 11.517578 L 12.931641 4.0332031 C 12.542481 3.0366131 11.4994 2 10 2 L 8 2 L 6 2 z M 6 3 L 10 3 C 11.108 3 11.7085 3.6498844 12 4.3964844 L 14.1875 10.107422 C 13.96789 10.044722 13.74028 10 13.5 10 L 2.5 10 C 2.25972 10 2.03211 10.044722 1.8125 10.107422 L 4 4.3964844 C 4.29153 3.6499044 4.892 3 6 3 z M 2.5 11 L 13.5 11 C 14.331 11 15 11.669 15 12.5 C 15 13.331 14.331 14 13.5 14 L 2.5 14 C 1.669 14 1 13.331 1 12.5 C 1 11.669 1.669 11 2.5 11 z M 8.5 12 A 0.5 0.5 0 0 0 8 12.5 A 0.5 0.5 0 0 0 8.5 13 A 0.5 0.5 0 0 0 9 12.5 A 0.5 0.5 0 0 0 8.5 12 z M 10.5 12 A 0.5 0.5 0 0 0 10 12.5 A 0.5 0.5 0 0 0 10.5 13 A 0.5 0.5 0 0 0 11 12.5 A 0.5 0.5 0 0 0 10.5 12 z M 12.5 12 A 0.5 0.5 0 0 0 12 12.5 A 0.5 0.5 0 0 0 12.5 13 A 0.5 0.5 0 0 0 13 12.5 A 0.5 0.5 0 0 0 12.5 12 z " />
</svg>

<svg version="1.1" viewBox="0 0 16 16" xmlns="http://www.w3.org/2000/svg">
 <defs>
  <style id="current-color-scheme" type="text/css">.ColorScheme-Text { color:#363636; }</style>
 </defs>
 <g class="ColorScheme-Text" fill="currentColor">
  <path d="m6 2c-1.4995 0-2.5425 1.0366-2.9316 2.0332l-2.8691 7.4844c-0.003232 0.0076-0.004654 0.01581-0.007813 0.02344l-0.058594 0.15039h0.011719c-0.08705 0.25475-0.14453 0.52362-0.14453 0.80859 0 1.385 1.115 2.5 2.5 2.5h11c1.385 0 2.5-1.115 2.5-2.5 0-0.28498-0.05748-0.55384-0.14453-0.80859h0.01172l-0.05859-0.15039-0.0039-0.01563c-0.0011-0.0027-0.0028-0.0051-0.0039-0.0078l-2.8692-7.4844c-0.38916-0.99659-1.4322-2.0332-2.9316-2.0332h-2zm0 1h4c1.108 0 1.7085 0.6499 2 1.3965l2.1875 5.7109c-0.21961-0.062705-0.44722-0.10742-0.6875-0.10742h-11c-0.24028 0-0.46789 0.04472-0.6875 0.10742l2.1875-5.7109c0.29153-0.74658 0.892-1.3965 2-1.3965zm-3.5 8h11c0.831 0 1.5 0.669 1.5 1.5s-0.669 1.5-1.5 1.5h-11c-0.831 0-1.5-0.669-1.5-1.5s0.669-1.5 1.5-1.5z"/>
  <circle cx="12.5" cy="12.5" r=".5"/>
  <circle cx="10.5" cy="12.5" r=".5"/>
  <circle cx="8.5" cy="12.5" r=".5"/>
 </g>
</svg>
